X: 6
T: The Swallowtail
R: jig
M: 6/8
L: 1/8
K: Edor
GEE BEE | GEE BAG | FDD ADD | dcd AGF |GEE BEE | GEE B2 c | dcd AGF | GEE E2 :|Bc^d e2 f | e2 f edB | Bc^d e2 f | edB d3 |Bc^d e2 f | e2 f edB | dcd AGF | GEE E2 :|


Tune 106	Setting 12677

